Chrome/images/old-upload.svg

<svg xmlns="http://www.w3.org/2000/svg" width="14" height="17"><path d="M0 15v2h14v-2H0Zm4-2h6V7h4l-1-1-1-1-1-1-1-1-1-1-1-1-1-1-1 1-1 1-1 1-1 1-1 1-1 1-1 1h4v6Z" shape-rendering="crispEdges" style="fill-rule:evenodd"/></svg>

<svg xmlns="http://www.w3.org/2000/svg" xmlns:xlink="http://www.w3.org/1999/xlink" width="14" height="17" viewBox="0 0 14 17">
  <defs>
    <style>
      .cls-1 {
        fill-rule: evenodd;
      }
    </style>
  </defs>
  <path class="cls-1" d="M0,15v2H14V15H0Zm4-2h6V7h4L13,6h0L12,5h0L11,4h0L10,3h0L9,2H9L8,1H8L7,0H7L6,1H6L5,2,4,3,3,4,2,5,1,6,0,7H4v6Z" shape-rendering="crispEdges"/>
</svg>
